X:1
T:I know that my redeemer liveth
T:I know that my redeemer liveth
T:(Messiah)
T:Handel
C:Handel
%%score 1 2 3
L:1/8
M:3/4
K:Bb
V:1 treble nm="Flute" snm="Fl."
V:2 treble transpose=-2 nm="B♭ Clarinet" snm="B♭ Cl."
V:3 treble transpose=-2 nm="B♭ Clarinet" snm="B♭ Cl."
V:1
 z4 f2 | b4 Td>c | B4 g2 | e3 d e2 | d2 z d' Tc'b | f6- | f3 z/ d/ Tc>B | b6- | b2 z B AG | %9
 F>G F>G F>G | E>F E>F E>F | D2 z3/2 d/ Tc>B | A2 z3/2 e'/ d'>c' | (3d'c'b a3 b | B3 c de | %15
 f3 g/a/ ba/g/ | f/g/e d2 Tc>B | B4 z2 | z4 F>E | D4 E2 | E4 F2 | F4 f2 | b4 d>c | B4 g2 | %24
 e3 d e2 | d4 d2 | d2 e4 | d3 c TBA | c2 d2 f2 | z3 d cB | =e4 z2 | z3 f =ed | c4 A2 | d2 G4 | %34
 A4 c'2 | f'4 a>g | f4 d'2 | b3 a b2 | a4 f2 | b4 d>c | B4 g2 | e4 d2 | c2 c2 cc | d3 d cB | f6- | %45
 f6- | f4 g>f | g4- ga | b3 B cd | e6- | e3 f dc | de c3 B | B4 f2 | =e>f e>f e>f | B4 e2 | %55
 (3dcB d2 c>B | B4 A2 | B4 A2 | B4 B2 | c4 f2 | a2 !fermata!b4 | B2 c2 d2 | B2 A2 f2 | %63
 =e>f e>f e>f | F4 F2 | F2 G4 |[Q:1/8=48]"^Adagio" f4 f2 | B4 A2 | B4"^A tempo" f2 | b4 Td>c | %70
 B4 g2 | e3 d e2 | d2 z d' c'b | f2 z B AG | F3 z/ e'/ d'>c' | (3d'c'b a3 b | B3 c de | %77
 f3 g/a/ ba/g/ | f/g/e d2 Tc>B | B6 |] %80
V:2
 c4 z2 | z4 G>F | =E4 c2 | c4 =B2 | c2 z4 | z3 c =B=e | d3 z z2 | z3 f =ed | c2 z4 | F4 =E2 | %10
 z4 D2 | C2 A4 | D2 G4 | a2 d4 | c4 A2 | c6 | z A c2 =B>G | c4 g2 | c'4 =e>d | c4 a2 | f3 =e f2 | %21
 =e2 e2 z2 | z4 =B2 | A4 f2 | d4 =B2 | c2 g2 g2 | c'4 d'2 | g6- | g3 =e dc | a6- | a3 ^f =ed | %31
 c'6- | c'3 d' =ba | =b/a/g ^f3 g | g6 | z4 D2 | =E4 C2 | A,4 ^F2 | G4 F2 | =E4 G2 | A4 F2 | %41
 D4 C2 | G4 z2 | z6 | z6 | z3 =e de | d4 z2 | z3 g f=e | g3 z z2 | z3 c =BA | G4 G2 | A2 G2 F2 | %52
 =E4 B2 | A6 | A4 A2 | G4 G2 | C4 G2 | C4 D2 | =E4 F2 | D4 =E2 | =B,2 !fermata!C4 | F4 c2 | %62
 G4 G,2 | A,6 | =B,6 | C2 F4- |"^Adagio" F4 =E2 | G,6 | C4"^A tempo" z2 | z4 G2 | A4 F2 | D4 G2 | %72
 C4 z2 | z3 G F=E | D3 z/ =B/ c2 | F2 G2 G2 | A2 G2 F2 | =E4 z2 | =EF G2 G2 | C6 |] %80
V:3
 C4 z2 | z4 G2 | A4 F2 | D4 G2 | C4 z2 | z3 =e dc | G4 z2 | z3 A GF | =E2 z E DC | =B,4 C2 | %10
 D4 G,2 | G,2 F,4 | G,2 =B,2 C2 | F2 G2 G2 | A2 G2 F2 | =E6 | z F G2 G2 | C4 z2 | z4 G,2 | %19
 A,4 F,2 | D4 G,2 | C4 z2 | z4 G>F | =E4 z2 | D4 G2 | C4 c2 | A4 =B2 | c4 z2 | =B,2 C4 | z3 c =BA | %30
 d4 z2 | z3 =E AG | ^F4 G2 | c2 d2 D2 | G4 z2 | z4 d>c | =B4 g2 | =e4 d2 | d4 =B2 | c4 G>F | %40
 =E4 c2 | c2 =B2 G2 | =B4 z2 | z6 | z3 =e dc | G3 C =B,C | =B,4 z2 | z3 A GF | =E3 z z2 | %49
 z3 =E DC | =B,4 C2 | F2 G2 G2 | C4 d2 | c6 | F4 c2 | c z c2 F2 | =E4"^Melody" D2 | =E2 E2 F2 | %58
 G2 G2 A2 | =B2 B2 c2 | d2 !fermata!=e4 | A2 =B2 c2 | =E2 D2 z2 | C6 | D4 f2 | =e2 d2 c2 | %66
"^Adagio" =B4 c2 | =e2 d3 c | c4"^A tempo" z2 | z4 G>F | =E4 c2 | A4 =B2 | c2 z4 | z3 =E DC | %74
 =B,3 z/ G/ G3/2 z/ | a2 d4 | c4 A2 | c4 z2 | c2 c2 =B>c | =E6 |] %80

